lib/mfweb/infodeck/public/left-arrow.svg

<?xml version="1.0" encoding="UTF-8" standalone="no"?>
<!-- Created with Inkscape (http://www.inkscape.org/) -->

<svg
   xmlns:dc="http://purl.org/dc/elements/1.1/"
   xmlns:cc="http://creativecommons.org/ns#"
   xmlns:rdf="http://www.w3.org/1999/02/22-rdf-syntax-ns#"
   xmlns:svg="http://www.w3.org/2000/svg"
   xmlns="http://www.w3.org/2000/svg"
   version="1.1"
   width="25"
   height="25"
   viewBox = "0 0 25 25"
   id="svg2">
  <defs
     id="defs4" />
  <metadata
     id="metadata7">
    <rdf:RDF>
      <cc:Work
         rdf:about="">
        <dc:format>image/svg+xml</dc:format>
        <dc:type
           rdf:resource="http://purl.org/dc/dcmitype/StillImage" />
        <dc:title></dc:title>
      </cc:Work>
    </rdf:RDF>
  </metadata>
  <g
     transform="translate(-94.894358,-507.94632)"
     id="layer1">
    <path
       d="m 102.375,509.28125 c -0.95092,0.0742 -1.86178,0.51746 -2.5625,1.15625 -0.84474,0.69867 -1.362013,1.69373 -1.90625,2.625 -0.459197,0.98586 -0.773089,2.0259 -1.09375,3.0625 -0.128608,0.97574 -0.203492,1.97945 -0.03364,2.95439 0.322009,1.80743 0.784484,3.59509 1.453039,5.30578 0.676409,1.56799 1.874664,2.83875 3.144494,3.95045 0.74278,0.59941 1.59503,1.09619 2.50171,1.405 1.12629,0.31674 2.29272,0.48034 3.45984,0.52957 1.13686,0.13699 2.28628,-0.0722 3.3905,-0.3325 1.01188,-0.22323 1.94066,-0.71244 2.84381,-1.20565 0.9656,-0.5079 1.79387,-1.22619 2.59942,-1.95224 0.7456,-0.69279 1.48316,-1.46142 1.76578,-2.46715 0.30308,-0.82592 0.31964,-1.72603 0.4063,-2.5939 -0.0969,-2.13874 -0.99617,-4.14378 -1.14233,-6.27573 -0.094,-1.04227 -0.40818,-2.15055 -1.20142,-2.88052 -0.82505,-0.75754 -1.70963,-1.46712 -2.65777,-2.06341 -0.83917,-0.52391 -1.8334,-0.73748 -2.79839,-0.89116 -1.41203,-0.17744 -2.83199,-0.34187 -4.25786,-0.29198 -1.02015,0.0453 -2.03904,0.0149 -3.05734,-0.0539 -0.28459,-0.0208 -0.57067,-0.02 -0.85364,0.0192 z"
       id="path3935"
       style="fill:none;stroke:#ffffff;stroke-width:1.33565271;stroke-linejoin:round;stroke-miterlimit:4;stroke-opacity:1;stroke-dasharray:none" />
    <path
       d="m 100.54707,519.00325 c 0.0818,0.33951 0.14739,0.68442 0.24532,1.01851 0.0175,0.0598 0.0652,0.10235 0.0981,0.15328 1.0994,1.70079 -0.13576,-0.18047 0.56422,0.82074 0.16387,0.23439 0.28442,0.46953 0.45383,0.70208 0.1625,0.22307 0.3695,0.40947 0.51516,0.62297 0.0162,0.0237 0.0245,0.0527 0.0368,0.0791 0.0695,0.0775 0.14366,0.15002 0.20852,0.23238 0.0798,0.10137 0.13824,0.29003 0.20851,0.39059 0.0314,0.045 0.0813,0.0717 0.1104,0.11867 0.0293,0.0472 0.0409,0.10547 0.0613,0.15821 0.049,0.0643 0.10158,0.12542 0.14718,0.19282 0.016,0.0237 0.0159,0.0608 0.0368,0.0791 0.0273,0.024 0.0737,0.0118 0.0981,0.0395 0.0252,0.0287 0.0138,0.0826 0.0368,0.11372 0.0768,0.10386 0.21507,0.18743 0.30665,0.27688 0.13205,0.12898 0.31309,0.30749 0.4293,0.46476 0.20545,0.27803 0.38463,0.57767 0.58875,0.86029 0.0271,0.0375 0.0439,0.0838 0.0736,0.11866 0.0163,0.0191 0.0476,0.0181 0.0613,0.0395 0.021,0.0328 0.0138,0.0826 0.0368,0.11372 0.058,0.0786 0.16574,0.10772 0.20852,0.19777 0.0222,0.0467 0.0187,0.10438 0.0368,0.15327 0.10642,0.28802 0.13126,0.30862 0.28211,0.54881 0.0699,0.11126 0.24394,0.27193 0.17172,0.27193 -0.0265,0 -0.0108,-0.0731 -0.0368,-0.0791 -0.14971,-0.0347 -0.30198,-0.0544 -0.45383,-0.0742 -0.4124,-0.0538 -0.44601,-0.0395 -0.87087,-0.0395 m -3.06655,-6.59556 c 0.0572,-0.39059 0.0825,-0.78877 0.17171,-1.17178 0.009,-0.0401 0.2429,-0.31448 0.28211,-0.35105 0.19054,-0.17771 0.37386,-0.37065 0.58875,-0.50925 0.27227,-0.17559 0.0447,0.0415 0.41704,-0.27193 0.17458,-0.14695 0.32826,-0.34972 0.49063,-0.50926 0.20961,-0.20595 0.47659,-0.36112 0.69914,-0.54386 0.36927,-0.30322 0.72161,-0.62212 1.07939,-0.93941 0.118,-0.10464 0.24936,-0.19221 0.35571,-0.31148 0.0405,-0.0455 0.0584,-0.11189 0.0981,-0.15822 0.039,-0.0455 0.0945,-0.0698 0.13493,-0.11372 0.14335,-0.15557 0.25176,-0.35324 0.3925,-0.50925 0.04,-0.0444 0.09,-0.0758 0.13492,-0.11372 0.094,-0.10548 0.19392,-0.20481 0.28212,-0.31644 0.0879,-0.11127 0.15568,-0.24148 0.24531,-0.35103 0.038,-0.0464 0.095,-0.0692 0.13492,-0.11372 0.0453,-0.0504 0.0789,-0.15256 0.13493,-0.19777 0.0612,-0.0493 0.0657,-0.0133 0.14718,-0.0791 0.0456,-0.0367 0.13714,-0.19848 0.0981,-0.15327 -0.23277,0.26975 -0.0804,0.0615 -0.34344,0.50431 m 6.16132,5.97781 c -1.42111,0.37205 -0.75742,0.37041 -1.66814,0.23238 -0.53517,-0.0811 -1.06907,-0.17644 -1.60681,-0.23238 -0.75416,-0.0785 -1.51567,-0.0703 -2.26916,-0.15822 -2.28451,-0.26656 -0.14874,-0.14135 -2.40408,-0.31148 -0.73014,-0.0551 -1.49779,-0.0811 -2.23236,-0.0395 -0.14457,0.008 -0.43161,0.0873 -0.45384,0.0395 -0.0294,-0.0632 0.0636,-0.31149 0.0736,-0.31149 0.0117,0 0,0.0264 0,0.0395 0,0.1302 -0.0244,0.2633 0,0.3906 0.0338,0.17589 0.11448,0.3362 0.17172,0.50431"
       id="path3890"
       style="fill:#ffffff;fill-opacity:1;fill-rule:nonzero;stroke:#ffffff;stroke-width:1.8713181;stroke-linejoin:round;stroke-miterlimit:4;stroke-opacity:1;stroke-dasharray:none" />
  </g>
</svg>

<?xml version="1.0" encoding="UTF-8" standalone="no"?>
<!-- Created with Inkscape (http://www.inkscape.org/) -->

<svg
   xmlns:dc="http://purl.org/dc/elements/1.1/"
   xmlns:cc="http://creativecommons.org/ns#"
   xmlns:rdf="http://www.w3.org/1999/02/22-rdf-syntax-ns#"
   xmlns:svg="http://www.w3.org/2000/svg"
   xmlns="http://www.w3.org/2000/svg"
   xmlns:sodipodi="http://sodipodi.sourceforge.net/DTD/sodipodi-0.dtd"
   xmlns:inkscape="http://www.inkscape.org/namespaces/inkscape"
   width="25"
   height="25"
   id="svg2"
   version="1.1"
   inkscape:version="0.48.2 r9819"
   sodipodi:docname="left-arrow.svg">
  <defs
     id="defs4" />
  <sodipodi:namedview
     id="base"
     pagecolor="#000000"
     bordercolor="#666666"
     borderopacity="1.0"
     inkscape:pageopacity="1"
     inkscape:pageshadow="2"
     inkscape:zoom="8"
     inkscape:cx="59.8125"
     inkscape:cy="0.58413352"
     inkscape:document-units="px"
     inkscape:current-layer="layer1"
     showgrid="false"
     fit-margin-top="0"
     fit-margin-left="0"
     fit-margin-right="0"
     fit-margin-bottom="0"
     inkscape:window-width="1221"
     inkscape:window-height="916"
     inkscape:window-x="2009"
     inkscape:window-y="324"
     inkscape:window-maximized="0" />
  <metadata
     id="metadata7">
    <rdf:RDF>
      <cc:Work
         rdf:about="">
        <dc:format>image/svg+xml</dc:format>
        <dc:type
           rdf:resource="http://purl.org/dc/dcmitype/StillImage" />
        <dc:title></dc:title>
      </cc:Work>
    </rdf:RDF>
  </metadata>
  <g
     inkscape:label="Layer 1"
     inkscape:groupmode="layer"
     id="layer1"
     transform="translate(-94.894358,-507.94632)">
    <path
       style="fill:none;stroke:#ffffff;stroke-width:1.33565271;stroke-linejoin:round;stroke-miterlimit:4;stroke-opacity:1;stroke-dasharray:none"
       d="M 102.375 509.28125 C 101.42408 509.35546 100.51322 509.79871 99.8125 510.4375 C 98.96776 511.13617 98.450487 512.13123 97.90625 513.0625 C 97.447053 514.04836 97.133161 515.0884 96.8125 516.125 C 96.683892 517.10074 96.609008 518.10445 96.778857 519.07939 C 97.100866 520.88682 97.563341 522.67448 98.231896 524.38517 C 98.908305 525.95316 100.10656 527.22392 101.37639 528.33562 C 102.11917 528.93503 102.97142 529.43181 103.8781 529.74062 C 105.00439 530.05736 106.17082 530.22096 107.33794 530.27019 C 108.4748 530.40718 109.62422 530.19796 110.72844 529.93769 C 111.74032 529.71446 112.6691 529.22525 113.57225 528.73204 C 114.53785 528.22414 115.36612 527.50585 116.17167 526.7798 C 116.91727 526.08701 117.65483 525.31838 117.93745 524.31265 C 118.24053 523.48673 118.25709 522.58662 118.34375 521.71875 C 118.24685 519.58001 117.34758 517.57497 117.20142 515.44302 C 117.10739 514.40075 116.79324 513.29247 116 512.5625 C 115.17495 511.80496 114.29037 511.09538 113.34223 510.49909 C 112.50306 509.97518 111.50883 509.76161 110.54384 509.60793 C 109.13181 509.43049 107.71185 509.26606 106.28598 509.31595 C 105.26583 509.36124 104.24694 509.33081 103.22864 509.26203 C 102.94405 509.24123 102.65797 509.24198 102.375 509.28125 z "
       id="path3935"
       inkscape:connector-curvature="0"
       sodipodi:nodetypes="csssscccccccccccccccccccssccscccccsccccsccccccccccccsscccscccccscscssccccsscccccccccsccscccccccccscccssscc" />
    <path
       id="path3890"
       style="fill:#ffffff;fill-opacity:1;fill-rule:nonzero;stroke:#ffffff;stroke-width:1.8713181;stroke-linejoin:round;stroke-miterlimit:4;stroke-opacity:1;stroke-dasharray:none"
       d="m 100.54707,519.00325 c 0.0818,0.33951 0.14739,0.68442 0.24532,1.01851 0.0175,0.0598 0.0652,0.10235 0.0981,0.15328 1.0994,1.70079 -0.13576,-0.18047 0.56422,0.82074 0.16387,0.23439 0.28442,0.46953 0.45383,0.70208 0.1625,0.22307 0.3695,0.40947 0.51516,0.62297 0.0162,0.0237 0.0245,0.0527 0.0368,0.0791 0.0695,0.0775 0.14366,0.15002 0.20852,0.23238 0.0798,0.10137 0.13824,0.29003 0.20851,0.39059 0.0314,0.045 0.0813,0.0717 0.1104,0.11867 0.0293,0.0472 0.0409,0.10547 0.0613,0.15821 0.049,0.0643 0.10158,0.12542 0.14718,0.19282 0.016,0.0237 0.0159,0.0608 0.0368,0.0791 0.0273,0.024 0.0737,0.0118 0.0981,0.0395 0.0252,0.0287 0.0138,0.0826 0.0368,0.11372 0.0768,0.10386 0.21507,0.18743 0.30665,0.27688 0.13205,0.12898 0.31309,0.30749 0.4293,0.46476 0.20545,0.27803 0.38463,0.57767 0.58875,0.86029 0.0271,0.0375 0.0439,0.0838 0.0736,0.11866 0.0163,0.0191 0.0476,0.0181 0.0613,0.0395 0.021,0.0328 0.0138,0.0826 0.0368,0.11372 0.058,0.0786 0.16574,0.10772 0.20852,0.19777 0.0222,0.0467 0.0187,0.10438 0.0368,0.15327 0.10642,0.28802 0.13126,0.30862 0.28211,0.54881 0.0699,0.11126 0.24394,0.27193 0.17172,0.27193 -0.0265,0 -0.0108,-0.0731 -0.0368,-0.0791 -0.14971,-0.0347 -0.30198,-0.0544 -0.45383,-0.0742 -0.4124,-0.0538 -0.44601,-0.0395 -0.87087,-0.0395 m -3.06655,-6.59556 c 0.0572,-0.39059 0.0825,-0.78877 0.17171,-1.17178 0.009,-0.0401 0.2429,-0.31448 0.28211,-0.35105 0.19054,-0.17771 0.37386,-0.37065 0.58875,-0.50925 0.27227,-0.17559 0.0447,0.0415 0.41704,-0.27193 0.17458,-0.14695 0.32826,-0.34972 0.49063,-0.50926 0.20961,-0.20595 0.47659,-0.36112 0.69914,-0.54386 0.36927,-0.30322 0.72161,-0.62212 1.07939,-0.93941 0.118,-0.10464 0.24936,-0.19221 0.35571,-0.31148 0.0405,-0.0455 0.0584,-0.11189 0.0981,-0.15822 0.039,-0.0455 0.0945,-0.0698 0.13493,-0.11372 0.14335,-0.15557 0.25176,-0.35324 0.3925,-0.50925 0.04,-0.0444 0.09,-0.0758 0.13492,-0.11372 0.094,-0.10548 0.19392,-0.20481 0.28212,-0.31644 0.0879,-0.11127 0.15568,-0.24148 0.24531,-0.35103 0.038,-0.0464 0.095,-0.0692 0.13492,-0.11372 0.0453,-0.0504 0.0789,-0.15256 0.13493,-0.19777 0.0612,-0.0493 0.0657,-0.0133 0.14718,-0.0791 0.0456,-0.0367 0.13714,-0.19848 0.0981,-0.15327 -0.23277,0.26975 -0.0804,0.0615 -0.34344,0.50431 m 6.16132,5.97781 c -1.42111,0.37205 -0.75742,0.37041 -1.66814,0.23238 -0.53517,-0.0811 -1.06907,-0.17644 -1.60681,-0.23238 -0.75416,-0.0785 -1.51567,-0.0703 -2.26916,-0.15822 -2.28451,-0.26656 -0.14874,-0.14135 -2.40408,-0.31148 -0.73014,-0.0551 -1.49779,-0.0811 -2.23236,-0.0395 -0.14457,0.008 -0.43161,0.0873 -0.45384,0.0395 -0.0294,-0.0632 0.0636,-0.31149 0.0736,-0.31149 0.0117,0 0,0.0264 0,0.0395 0,0.1302 -0.0244,0.2633 0,0.3906 0.0338,0.17589 0.11448,0.3362 0.17172,0.50431"
       inkscape:connector-curvature="0" />
  </g>
</svg>
